geofa_plugin/geofa_symboler/Friluftsliv, punkt/MINIGOLFBANE.svg

<svg xmlns="http://www.w3.org/2000/svg" width="5.5mm" height="5.5mm" viewBox="0 0 15.591 15.591">
  <rect width="15.591" height="15.591" rx="7.795" fill="#427c7f"/>
  <path d="M11.786,12.629l-1.765-4.35a.832.832,0,0,0-.756-.547H8.3V2.174l0,0,0-.419a.267.267,0,0,0-.367-.24l-2.056.944a.267.267,0,0,0-.023.484l2,.964V7.732H6.441a.853.853,0,0,0-.8.687L4.572,12.768a.921.921,0,0,0,.8,1.188h5.656A.936.936,0,0,0,11.786,12.629Zm-3.825-2.6c-.643,0-1.165-.283-1.165-.63,0-.308.409-.565.947-.619h.111v.448a.224.224,0,0,0,.448,0V8.783h.005c.538.054.818.311.818.619C9.125,9.749,8.6,10.032,7.961,10.032Z" fill="#fff"/>
</svg>

<?xml version="1.0" encoding="UTF-8"?>
<svg xmlns="http://www.w3.org/2000/svg" viewBox="0 0 15.59 15.59">
  <defs>
    <style>
      .cls-1 {
        fill: #071f39;
      }

      .cls-1, .cls-2 {
        stroke-width: 0px;
      }

      .cls-2 {
        fill: #fff;
      }
    </style>
  </defs>
  <g id="Cirkel">
    <rect class="cls-1" x="0" y="0" width="15.59" height="15.59" rx="7.8" ry="7.8"/>
  </g>
  <g id="ICONS">
    <path class="cls-2" d="M11.79,12.63l-1.76-4.35c-.14-.33-.43-.55-.76-.55h-.96V2.17s0,0,0,0v-.42c0-.19-.19-.31-.37-.24l-2.06.94c-.21.09-.22.38-.02.48l2,.96v3.83h-1.41c-.37,0-.7.28-.8.69l-1.07,4.35c-.15.6.25,1.19.8,1.19h5.66c.61,0,1.01-.71.76-1.33ZM7.96,10.03c-.64,0-1.16-.28-1.16-.63,0-.31.41-.57.95-.62h.11v.45c0,.12.1.22.22.22s.22-.1.22-.22v-.45h0c.54.05.82.31.82.62,0,.35-.52.63-1.16.63Z"/>
  </g>
</svg>
